icons/nine.svg

<svg width="48" height="48" viewBox="0 0 48 48" fill="none" xmlns="http://www.w3.org/2000/svg">
<path fill-rule="evenodd" clip-rule="evenodd" d="M13.5164 33.0045C14.7589 36.5011 18.1044 39 22.0321 39H25.9679C30.9407 39 35 34.986 35 30V18C35 13.014 30.9407 9 25.9679 9H22.0321C17.0593 9 13 13.014 13 18C13 22.986 17.0593 27 22.0321 27H25.9679C27.0299 27 28.0511 26.8167 29 26.4797V30C29 31.6425 27.6568 33 25.9679 33H22.0321C20.7057 33 19.5833 32.1585 19.1701 30.9955C18.6153 29.4343 16.9 28.6184 15.3387 29.1732C13.7775 29.7279 12.9616 31.4433 13.5164 33.0045ZM22.0321 37C18.9725 37 16.3674 35.0545 15.401 32.3348C15.216 31.8144 15.488 31.2426 16.0084 31.0577C16.5288 30.8728 17.1006 31.1448 17.2855 31.6652C17.9757 33.6075 19.8402 35 22.0321 35H25.9679C28.7528 35 31 32.7556 31 30V24.9201C31 24.5626 30.8091 24.2323 30.4994 24.0537C30.1896 23.8752 29.8082 23.8756 29.4988 24.0547C28.461 24.6558 27.2554 25 25.9679 25H22.0321C18.153 25 15 21.8706 15 18C15 14.1294 18.153 11 22.0321 11H25.9679C29.8469 11 33 14.1294 33 18V30C33 33.8706 29.8469 37 25.9679 37H22.0321ZM22.0321 21C20.3432 21 19 19.6425 19 18C19 16.3575 20.3432 15 22.0321 15H25.9679C27.6568 15 29 16.3575 29 18C29 19.6425 27.6568 21 25.9679 21H22.0321ZM17 18C17 20.7556 19.2472 23 22.0321 23H25.9679C28.7528 23 31 20.7556 31 18C31 15.2444 28.7528 13 25.9679 13H22.0321C19.2472 13 17 15.2444 17 18Z" fill="black"/>
</svg>

<svg
  xmlns="http://www.w3.org/2000/svg"
  width="24"
  height="24"
  viewBox="0 0 24 24"
  fill="none"
  stroke="currentColor"
  stroke-width="2"
  stroke-linecap="round"
  stroke-linejoin="round"
>
  <path
    fill-rule="evenodd"
    d="M13.516 33.005A9.03 9.03 0 0 0 22.032 39h3.936C30.94 39 35 34.986 35 30V18c0-4.986-4.06-9-9.032-9h-3.936C17.06 9 13 13.014 13 18s4.06 9 9.032 9h3.936A9 9 0 0 0 29 26.48V30c0 1.642-1.343 3-3.032 3h-3.936a3.03 3.03 0 0 1-2.862-2.005 3 3 0 0 0-5.654 2.01M22.032 37a7.03 7.03 0 0 1-6.631-4.665 1 1 0 1 1 1.884-.67A5.03 5.03 0 0 0 22.033 35h3.936C28.753 35 31 32.756 31 30v-5.08a1 1 0 0 0-1.501-.865 7 7 0 0 1-3.531.945h-3.936C18.153 25 15 21.87 15 18s3.153-7 7.032-7h3.936C29.847 11 33 14.13 33 18v12c0 3.87-3.153 7-7.032 7zm0-16C20.343 21 19 19.642 19 18s1.343-3 3.032-3h3.936C27.657 15 29 16.358 29 18s-1.343 3-3.032 3zM17 18c0 2.756 2.247 5 5.032 5h3.936C28.753 23 31 20.756 31 18s-2.247-5-5.032-5h-3.936C19.247 13 17 15.244 17 18"
    clip-rule="evenodd"
  />
</svg>
